!!!OTL@@DE: Bundeslied
!!!COM: Reichardt, Joh. Fr.
!!!ODT: 1809
!!!OMD: Nicht schnell
!!!LYR: Goethe, Wolfgang von
!!!LDT: 1775
!!!OCL: Erk, Ludwig
!!!GCO: Deutscher Liederschatz, Band 1
**kern	**kern	**kern
*staff3	*staff2	*staff1
*Ipiano	*Ipiano	*Ivox
*>[A,A,B]	*>[A,A,B]	*>[A,A,B]
*>norep[A,B]	*>norep[A,B]	*>norep[A,B]
*>A	*>A	*>A
*clefF4	*clefG2	*clefG2
*k[b-e-a-]	*k[b-e-a-]	*k[b-e-a-]
*E-:	*E-:	*E-:
*met(C)	*met(C)	*met(C)
*M4/4	*M4/4	*M4/4
*MM88	*MM88	*MM88
4BB-/	4B-/	4B-/
=1	=1	=1
4E-\	4e-/	4e-/
4G\	4g/	4g/
4B-\	4b-\	4b-\
4B-\	4d/ 4f/ 4b-/	4b-\
=2	=2	=2
2E-\	2e-/ 2g/ 2b-/	2b-\
4E-\	4e-/ 4g/	4g/
4B-\	4b-\	4b-\
=3	=3	=3
4E-\ 4G\	4e-/ 4ee-/	4ee-\
4B-\	4b-\	4b-\
4G\	4g/	4g/
4E-\	4e-/	4e-/
=4	=4	=4
2.BB-\ 2.B-\	2.d/ 2.f/ 2.b-/	2b-\
.	.	4r
=:|!	=:|!	=:|!
*>B	*>B	*>B
4r	4B-/ 4b-/	4b-\
=5	=5	=5
*^	*^	*
4F/	1BB-	4b-/	4d\	4b-\
4B-/	.	4b-/	4d\	4b-\
2B-/	.	4cc/	4en\	4cc\
.	.	4g/	4e\	4g/
*	*	*v	*v	*
=6	=6	=6	=6
(4D/	2.BB-\	2f/ (2b-/	2b-\
4F/	.	.	.
4B-/)	.	4f/ 4a-/)	4a-/
4r	4D\ 4B-\	4f/	4f/
*v	*v	*	*
=7	=7	=7
4E-\ 4B-\	4e-/ 4g/	4g/
4D\ 4F\	4f/ 4b-/	4b-\
4C\ 4G\	4e-/ 4ee-/	4ee-\
4F\	(8e-/ 8f/ 8cc/L	(8cc\L
.	8c/) 8an/J	8an\J)
=8	=8	=8
*^	*	*
4F/	2.BB-\	2.d/ 2.f/ 2.b-/	2b-\
4B-/	.	.	.
4B-/	.	.	4r
4r	4BB-\ 4B-\	4b-/	4b-\
*v	*v	*	*
=9	=9	=9
4GG/ 4G/	4g/	4g/
4EE-/ 4E-/	4e-/	4e-/
4E-\ 4G\ 4B-\	4e-/ 4ee-/	4ee-\
4E-\ 4G\ 4d-\	4e-/ 4ee-/	4ee-\
=10	=10	=10
*^	*	*
(2c/	2.A-\	2e-/ (2ee-/	2ee-\
4A-/)	.	4e-/ 4cc/)	4cc\
4ryy	4AA-\ 4A-\	4e-/ 4cc/	4cc\
*v	*v	*	*
=11	=11	=11
2BB-\ 2G\	4e-/ 4b-/	4b-\
.	(8g/L	(8g/L
.	8e-/J)	8e-/J)
4BB-\ 4G\	4B-/	4B-/
*	*^	*
4BB-\ 4F\	8c/L	4A-\	(8c/L
.	8d/J	.	8d/J)
*	*v	*v	*
=12	=12	=12
2.EE-/ 2.E-/	2.G/ 2.e-/	2e-/
.	.	4r
==	==	==
*-	*-	*-
!!!ENC: Craig Stuart Sapp
!!!END: 2004/06/28/
!!!EFL: 191/651
